resources/haticons/SVG/web.svg

<!-- Generated by IcoMoon.io -->
<svg version="1.1" xmlns="http://www.w3.org/2000/svg" width="24" height="24" viewBox="0 0 24 24">
<title>web</title>
<path d="M20.016 18v-9h-4.031v9h4.031zM15 12.984v-3.984h-11.016v3.984h11.016zM15 18v-3.984h-11.016v3.984h11.016zM20.016 3.984q0.797 0 1.383 0.609t0.586 1.406v12q0 0.797-0.586 1.406t-1.383 0.609h-16.031q-0.797 0-1.383-0.609t-0.586-1.406v-12q0-0.797 0.586-1.406t1.383-0.609h16.031z"></path>
</svg>

<svg xmlns="http://www.w3.org/2000/svg" width="24" height="24"><path d="M20.016 18V9h-4.031v9h4.031zM15 12.984V9H3.984v3.984H15zM15 18v-3.984H3.984V18H15zm5.016-14.016q.797 0 1.383.609t.586 1.406v12q0 .797-.586 1.406t-1.383.609H3.985q-.797 0-1.383-.609t-.586-1.406v-12q0-.797.586-1.406t1.383-.609h16.031z"/></svg>
